images/icons/steam.svg

<svg fill="none" height="24" viewBox="0 0 24 24" width="24" xmlns="http://www.w3.org/2000/svg" xmlns:xlink="http://www.w3.org/1999/xlink"><clipPath id="a"><path d="m0 0h24v24h-24z"/></clipPath><g clip-path="url(#a)"><path d="m24 12c0 6.629-5.3806 12-12.0194 12-5.50641 0-10.14189-3.6919-11.564471-8.729l4.606451 1.9016c.30968 1.5532 1.68871 2.729 3.33387 2.729 1.89675 0 3.47905-1.5677 3.39675-3.5564l4.0887-2.9129c2.521.0629 4.6355-1.9791 4.6355-4.52424 0-2.49677-2.0322-4.52419-4.5339-4.52419-2.5016 0-4.5338 2.03226-4.5338 4.52419v.05807l-2.86454 4.14677c-.75-.0435-1.48548.1645-2.10484.5855l-6.44032-2.6613c.493548-6.17904 5.66613-11.0371 11.9806-11.0371 6.6388 0 12.0194 5.37097 12.0194 12zm-16.46613 6.2081-1.47581-.6097c.2712.5631.73946 1.0073 1.31613 1.2484 1.30162.5419 2.79681-.0774 3.33871-1.3742.2613-.6291.2661-1.321.0048-1.95-.2612-.6291-.74996-1.1226-1.37899-1.3839-.62419-.2613-1.29194-.2516-1.88226-.029l1.5242.629c.95806.3968 1.41285 1.4952 1.01129 2.4532-.40162.9629-1.5 1.4129-2.45807 1.0162zm8.40963-6.2855c-1.6645 0-3.0193-1.3549-3.0193-3.01454 0-1.65967 1.3548-3.01451 3.0193-3.01451 1.6646 0 3.0194 1.35484 3.0194 3.01451 0 1.65964-1.35 3.01454-3.0194 3.01454zm.0049-.7549c1.2532 0 2.2693-1.0161 2.2693-2.26447 0-1.25323-1.0161-2.26452-2.2693-2.26452s-2.2694 1.01613-2.2694 2.26452c.0049 1.24837 1.021 2.26447 2.2694 2.26447z" fill="#fff"/></g></svg>

<svg width="24" height="24" viewBox="0 0 24 24" fill="none" xmlns="http://www.w3.org/2000/svg">
<g clip-path="url(#clip0_1432_8766)">
<path d="M24 12C24 18.629 18.6194 24 11.9806 24C6.47419 24 1.83871 20.3081 0.416129 15.271L5.02258 17.1726C5.33226 18.7258 6.71129 19.9016 8.35645 19.9016C10.2532 19.9016 11.8355 18.3339 11.7532 16.3452L15.8419 13.4323C18.3629 13.4952 20.4774 11.4532 20.4774 8.90806C20.4774 6.41129 18.4452 4.38387 15.9435 4.38387C13.4419 4.38387 11.4097 6.41613 11.4097 8.90806V8.96613L8.54516 13.1129C7.79516 13.0694 7.05968 13.2774 6.44032 13.6984L0 11.0371C0.493548 4.85806 5.66613 0 11.9806 0C18.6194 0 24 5.37097 24 12ZM7.53387 18.2081L6.05806 17.5984C6.32926 18.1615 6.79752 18.6057 7.37419 18.8468C8.67581 19.3887 10.171 18.7694 10.7129 17.4726C10.9742 16.8435 10.979 16.1516 10.7177 15.5226C10.4565 14.8935 9.96774 14.4 9.33871 14.1387C8.71452 13.8774 8.04677 13.8871 7.45645 14.1097L8.98065 14.7387C9.93871 15.1355 10.3935 16.2339 9.99194 17.1919C9.59032 18.1548 8.49194 18.6048 7.53387 18.2081V18.2081ZM15.9435 11.9226C14.279 11.9226 12.9242 10.5677 12.9242 8.90806C12.9242 7.24839 14.279 5.89355 15.9435 5.89355C17.6081 5.89355 18.9629 7.24839 18.9629 8.90806C18.9629 10.5677 17.6129 11.9226 15.9435 11.9226V11.9226ZM15.9484 11.1677C17.2016 11.1677 18.2177 10.1516 18.2177 8.90323C18.2177 7.65 17.2016 6.63871 15.9484 6.63871C14.6952 6.63871 13.679 7.65484 13.679 8.90323C13.6839 10.1516 14.7 11.1677 15.9484 11.1677Z" fill="white"/>
</g>
<defs>
<clipPath id="clip0_1432_8766">
<rect width="24" height="24" fill="white"/>
</clipPath>
</defs>
</svg>
